icons/add-user-24.svg

<svg width="24" height="24" viewBox="0 0 24 24" fill="none" xmlns="http://www.w3.org/2000/svg">
<path fill-rule="evenodd" clip-rule="evenodd" d="M19.25 0C19.6642 0 20 0.335786 20 0.75V3H22.25C22.6642 3 23 3.33579 23 3.75C23 4.16421 22.6642 4.5 22.25 4.5H20V6.75C20 7.16421 19.6642 7.5 19.25 7.5C18.8358 7.5 18.5 7.16421 18.5 6.75V4.5H16.25C15.8358 4.5 15.5 4.16421 15.5 3.75C15.5 3.33579 15.8358 3 16.25 3H18.5V0.75C18.5 0.335786 18.8358 0 19.25 0ZM9.00006 5C7.06711 5 5.50013 6.56699 5.50013 8.5C5.50013 10.433 7.06711 12 9.00006 12C10.933 12 12.5 10.433 12.5 8.5C12.5 6.56699 10.933 5 9.00006 5ZM4.00013 8.5C4.00013 5.73859 6.23866 3.5 9.00006 3.5C11.7615 3.5 14 5.73859 14 8.5C14 10.1734 13.1779 11.6548 11.9156 12.5624C14.7874 13.7059 16.8374 16.4714 16.9343 19.7277C16.9467 20.1417 16.621 20.4873 16.207 20.4997C15.7929 20.512 15.4473 20.1863 15.435 19.7723C15.3314 16.2908 12.4761 13.5 8.96917 13.5C5.46228 13.5 2.60695 16.2908 2.50334 19.7723C2.49101 20.1863 2.14539 20.512 1.73136 20.4997C1.31733 20.4873 0.991678 20.1417 1.004 19.7277C1.10137 16.4563 3.16993 13.6803 6.06271 12.5466C4.81273 11.6377 4.00013 10.1638 4.00013 8.5Z" fill="black"/>
</svg>

<svg xmlns="http://www.w3.org/2000/svg" width="24" height="24" viewBox="0 0 24 24"><path fill-rule="evenodd" d="M19.25 0a.75.75 0 01.75.75V3h2.25a.75.75 0 010 1.5H20v2.25a.75.75 0 01-1.5 0V4.5h-2.25a.75.75 0 010-1.5h2.25V.75a.75.75 0 01.75-.75zM9 5a3.5 3.5 0 100 7 3.5 3.5 0 000-7zM4 8.5a5 5 0 117.916 4.062 7.973 7.973 0 015.018 7.166.75.75 0 11-1.499.044 6.469 6.469 0 00-12.932 0 .75.75 0 01-1.499-.044 7.973 7.973 0 015.059-7.181A4.993 4.993 0 014 8.5z"/></svg>
